Newaita-dark/.DP/24/software-update-urgent.svg

<?xml version="1.0" encoding="UTF-8"?>
<svg xmlns="http://www.w3.org/2000/svg" xmlns:xlink="http://www.w3.org/1999/xlink" width="24px" height="24px" viewBox="0 0 24 24" version="1.1">
<g id="surface1">
<path style=" stroke:none;fill-rule:nonzero;fill:rgb(93.333334%,93.333334%,93.333334%);fill-opacity:1;" d="M 11.90625 3.164062 C 10.984375 3.164062 10.359375 5.945312 9.503906 6.296875 C 8.652344 6.648438 6.246094 5.125 5.59375 5.78125 C 4.9375 6.433594 6.460938 8.839844 6.109375 9.691406 C 5.757812 10.546875 2.976562 11.171875 2.976562 12.09375 C 2.976562 13.019531 5.757812 13.644531 6.109375 14.496094 C 6.460938 15.351562 4.9375 17.757812 5.59375 18.410156 C 6.246094 19.0625 8.652344 17.539062 9.503906 17.894531 C 10.359375 18.246094 10.984375 21.027344 11.90625 21.027344 C 12.832031 21.027344 13.457031 18.246094 14.308594 17.894531 C 15.164062 17.539062 17.570312 19.0625 18.222656 18.410156 C 18.875 17.757812 17.351562 15.351562 17.707031 14.496094 C 18.058594 13.644531 20.839844 13.019531 20.839844 12.09375 C 20.839844 11.171875 18.058594 10.546875 17.707031 9.691406 C 17.351562 8.839844 18.875 6.433594 18.222656 5.78125 C 17.570312 5.125 15.164062 6.648438 14.308594 6.296875 C 13.457031 5.945312 12.832031 3.164062 11.90625 3.164062 Z M 11.90625 7.628906 C 12.457031 7.628906 12.898438 8.070312 12.898438 8.621094 L 12.898438 12.589844 C 12.898438 13.140625 12.457031 13.582031 11.90625 13.582031 C 11.359375 13.582031 10.914062 13.140625 10.914062 12.589844 L 10.914062 8.621094 C 10.914062 8.070312 11.359375 7.628906 11.90625 7.628906 Z M 11.90625 14.574219 C 12.457031 14.574219 12.898438 15.019531 12.898438 15.566406 C 12.898438 16.117188 12.457031 16.558594 11.90625 16.558594 C 11.359375 16.558594 10.914062 16.117188 10.914062 15.566406 C 10.914062 15.019531 11.359375 14.574219 11.90625 14.574219 Z M 11.90625 14.574219 "/>
</g>
</svg>

<svg xmlns="http://www.w3.org/2000/svg" width="32" height="32" viewBox="0 0 24 24"><path d="M11.906 3.164c-1.449 0-1.082 2.527-2.422 3.082-1.34.555-2.867-1.492-3.89-.465-1.028 1.024 1.02 2.551.465 3.89-.555 1.34-3.082.974-3.082 2.423 0 1.453 2.527 1.086 3.082 2.426.554 1.34-1.493 2.863-.465 3.89 1.023 1.024 2.55-1.02 3.89-.465 1.34.555.973 3.082 2.422 3.082 1.453 0 1.086-2.527 2.426-3.082 1.34-.554 2.863 1.489 3.89.465 1.024-1.027-1.019-2.55-.464-3.89.555-1.34 3.082-.973 3.082-2.426 0-1.45-2.527-1.082-3.082-2.422-.555-1.34 1.488-2.867.465-3.89-1.028-1.028-2.551 1.019-3.891.464-1.34-.555-.973-3.082-2.426-3.082zm0 3.969c.551 0 .992.441.992.992v4.465c0 .55-.441.992-.992.992a.991.991 0 0 1-.992-.992V8.125c0-.55.445-.992.992-.992zm0 7.937c.551 0 .992.446.992.992a.991.991 0 1 1-.992-.992zm0 0" fill="#bdbdbd"/></svg>
